images/min-light.svg

<svg fill="none" height="34" viewBox="0 0 34 34" width="34" xmlns="http://www.w3.org/2000/svg" xmlns:xlink="http://www.w3.org/1999/xlink"><filter id="a" color-interpolation-filters="sRGB" filterUnits="userSpaceOnUse" height="33.9645" width="36" x="-1" y=".517754"><feFlood flood-opacity="0" result="BackgroundImageFix"/><feBlend in="SourceGraphic" in2="BackgroundImageFix" mode="normal" result="shape"/><feColorMatrix in="SourceAlpha" result="hardAlpha" type="matrix" values="0 0 0 0 0 0 0 0 0 0 0 0 0 0 0 0 0 0 127 0"/><feOffset dx="1" dy="1"/><feGaussianBlur stdDeviation="8"/><feComposite in2="hardAlpha" k2="-1" k3="1" operator="arithmetic"/><feColorMatrix type="matrix" values="0 0 0 0 0.414167 0 0 0 0 0.414167 0 0 0 0 0.414167 0 0 0 0.2 0"/><feBlend in2="shape" mode="normal" result="effect1_innerShadow"/><feColorMatrix in="SourceAlpha" result="hardAlpha" type="matrix" values="0 0 0 0 0 0 0 0 0 0 0 0 0 0 0 0 0 0 127 0"/><feOffset dx="-1"/><feGaussianBlur stdDeviation="1"/><feComposite in2="hardAlpha" k2="-1" k3="1" operator="arithmetic"/><feColorMatrix type="matrix" values="0 0 0 0 0.98 0 0 0 0 0.98 0 0 0 0 0.98 0 0 0 0.2 0"/><feBlend in2="effect1_innerShadow" mode="normal" result="effect2_innerShadow"/></filter><filter id="b" color-interpolation-filters="sRGB" filterUnits="userSpaceOnUse" height="22.9565" width="21" x="15" y="13.0435"><feFlood flood-opacity="0" result="BackgroundImageFix"/><feBlend in="SourceGraphic" in2="BackgroundImageFix" mode="normal" result="shape"/><feColorMatrix in="SourceAlpha" result="hardAlpha" type="matrix" values="0 0 0 0 0 0 0 0 0 0 0 0 0 0 0 0 0 0 127 0"/><feOffset dx="-1" dy="1"/><feGaussianBlur stdDeviation=".5"/><feComposite in2="hardAlpha" k2="-1" k3="1" operator="arithmetic"/><feColorMatrix type="matrix" values="0 0 0 0 0.98 0 0 0 0 0.98 0 0 0 0 0.98 0 0 0 0.5 0"/><feBlend in2="shape" mode="normal" result="effect1_innerShadow"/><feGaussianBlur result="effect2_foregroundBlur" stdDeviation="1"/></filter><filter id="c" color-interpolation-filters="sRGB" filterUnits="userSpaceOnUse" height="27.9645" width="37" x="-1" y="-1"><feFlood flood-opacity="0" result="BackgroundImageFix"/><feBlend in="SourceGraphic" in2="BackgroundImageFix" mode="normal" result="shape"/><feColorMatrix in="SourceAlpha" result="hardAlpha" type="matrix" values="0 0 0 0 0 0 0 0 0 0 0 0 0 0 0 0 0 0 127 0"/><feOffset dx="2" dy="2"/><feGaussianBlur stdDeviation="10"/><feComposite in2="hardAlpha" k2="-1" k3="1" operator="arithmetic"/><feColorMatrix type="matrix" values="0 0 0 0 0.643333 0 0 0 0 0.643333 0 0 0 0 0.643333 0 0 0 0.2 0"/><feBlend in2="shape" mode="normal" result="effect1_innerShadow"/><feColorMatrix in="SourceAlpha" result="hardAlpha" type="matrix" values="0 0 0 0 0 0 0 0 0 0 0 0 0 0 0 0 0 0 127 0"/><feOffset dx="-2"/><feGaussianBlur stdDeviation=".5"/><feComposite in2="hardAlpha" k2="-1" k3="1" operator="arithmetic"/><feColorMatrix type="matrix" values="0 0 0 0 0.98 0 0 0 0 0.98 0 0 0 0 0.98 0 0 0 0.8 0"/><feBlend in2="effect1_innerShadow" mode="normal" result="effect2_innerShadow"/><feGaussianBlur result="effect3_foregroundBlur" stdDeviation=".5"/></filter><radialGradient id="d" cx="0" cy="0" gradientTransform="matrix(-48.78191297 -16.61621909 368.48049461 -1081.78541194 30.2818 26.6165)" gradientUnits="userSpaceOnUse" r="1"><stop offset="0" stop-color="#fafafa"/><stop offset="1" stop-color="#fafafa"/></radialGradient><radialGradient id="e" cx="0" cy="0" gradientTransform="matrix(-30.50005465 -3.49984944 5.6361459 -49.1171866 31.5 21.5)" gradientUnits="userSpaceOnUse" r="1"><stop offset="0" stop-color="#eaeaea"/><stop offset=".0001" stop-color="#e9e9e9"/><stop offset="1" stop-color="#e4e4e4"/></radialGradient><radialGradient id="f" cx="0" cy="0" gradientTransform="matrix(-31.99999033 -7.99985311 4.66288642 -18.65188251 35.5 15)" gradientUnits="userSpaceOnUse" r="1"><stop offset="0" stop-color="#fafafa"/><stop offset="1" stop-color="#f8f8f8"/></radialGradient><mask id="g" height="32" maskUnits="userSpaceOnUse" width="34" x="0" y="1"><path d="m0 14.9767c0-1.2459.580524-2.4206 1.5702-3.1774l13-9.94122c1.4342-1.096756 3.4254-1.096755 4.8596 0l13 9.94122c.9897.7568 1.5702 1.9315 1.5702 3.1774v4.0466c0 1.2459-.5805 2.4206-1.5702 3.1774l-13 9.9412c-1.4342 1.0968-3.4254 1.0968-4.8596 0l-13-9.9412c-.989676-.7568-1.5702-1.9315-1.5702-3.1774z" fill="#2b1f00" opacity=".92"/></mask><g mask="url(#g)"><g filter="url(#a)"><path d="m0 13.9883c0-.6229.290262-1.2103.7851-1.5887l15-11.470559c.7171-.54838 1.7127-.548379 2.4298 0l15 11.470559c.4948.3784.7851.9658.7851 1.5887v6.0234c0 .6229-.2903 1.2103-.7851 1.5887l-15 11.4706c-.7171.5483-1.7127.5483-2.4298 0l-14.999999-11.4706c-.494838-.3784-.785101-.9658-.785101-1.5887z" fill="url(#d)" fill-opacity=".8"/></g><g filter="url(#b)"><path d="m34 20.0117v-2.9645c0-1.6567-1.8989-2.5951-3.2149-1.5887l-13 9.9411c-.4948.3784-.7851.9658-.7851 1.5887v7.0117l16.2149-12.3996c.4948-.3784.7851-.9658.7851-1.5887z" fill="url(#e)" fill-opacity=".8"/></g><g filter="url(#c)"><path d="m17 0-17 13 14.5702 11.1419c1.4342 1.0968 3.4254 1.0968 4.8596 0l14.5702-11.1419z" fill="url(#f)" fill-opacity=".9"/></g></g></svg>

<svg width="34" height="34" viewBox="0 0 34 34" fill="none" xmlns="http://www.w3.org/2000/svg">
<mask id="mask0" mask-type="alpha" maskUnits="userSpaceOnUse" x="0" y="1" width="34" height="32">
<path opacity="0.92" d="M0 14.9767C0 13.7308 0.580524 12.5561 1.5702 11.7993L14.5702 1.85808C16.0044 0.761324 17.9956 0.761325 19.4298 1.85808L32.4298 11.7993C33.4195 12.5561 34 13.7308 34 14.9767V19.0233C34 20.2692 33.4195 21.4439 32.4298 22.2007L19.4298 32.1419C17.9956 33.2387 16.0044 33.2387 14.5702 32.1419L1.5702 22.2007C0.580524 21.4439 0 20.2692 0 19.0233V14.9767Z" fill="#2B1F00"/>
</mask>
<g mask="url(#mask0)">
<g filter="url(#filter0_ii)">
<path d="M0 13.9883C0 13.3654 0.290262 12.778 0.7851 12.3996L15.7851 0.929041C16.5022 0.380661 17.4978 0.380662 18.2149 0.929041L33.2149 12.3996C33.7097 12.778 34 13.3654 34 13.9883V20.0117C34 20.6346 33.7097 21.222 33.2149 21.6004L18.2149 33.071C17.4978 33.6193 16.5022 33.6193 15.7851 33.071L0.785101 21.6004C0.290263 21.222 0 20.6346 0 20.0117V13.9883Z" fill="url(#paint0_radial)" fill-opacity="0.8"/>
</g>
<g filter="url(#filter1_if)">
<path d="M34 20.0117V17.0472C34 15.3905 32.1011 14.4521 30.7851 15.4585L17.7851 25.3996C17.2903 25.778 17 26.3654 17 26.9883V34L33.2149 21.6004C33.7097 21.222 34 20.6346 34 20.0117Z" fill="url(#paint1_radial)" fill-opacity="0.8"/>
</g>
<g filter="url(#filter2_iif)">
<path d="M17 0L0 13L14.5702 24.1419C16.0044 25.2387 17.9956 25.2387 19.4298 24.1419L34 13L17 0Z" fill="url(#paint2_radial)" fill-opacity="0.9"/>
</g>
</g>
<defs>
<filter id="filter0_ii" x="-1" y="0.517761" width="36" height="33.9645" filterUnits="userSpaceOnUse" color-interpolation-filters="sRGB">
<feFlood flood-opacity="0" result="BackgroundImageFix"/>
<feBlend mode="normal" in="SourceGraphic" in2="BackgroundImageFix" result="shape"/>
<feColorMatrix in="SourceAlpha" type="matrix" values="0 0 0 0 0 0 0 0 0 0 0 0 0 0 0 0 0 0 127 0" result="hardAlpha"/>
<feOffset dx="1" dy="1"/>
<feGaussianBlur stdDeviation="8"/>
<feComposite in2="hardAlpha" operator="arithmetic" k2="-1" k3="1"/>
<feColorMatrix type="matrix" values="0 0 0 0 0.414167 0 0 0 0 0.414167 0 0 0 0 0.414167 0 0 0 0.2 0"/>
<feBlend mode="normal" in2="shape" result="effect1_innerShadow"/>
<feColorMatrix in="SourceAlpha" type="matrix" values="0 0 0 0 0 0 0 0 0 0 0 0 0 0 0 0 0 0 127 0" result="hardAlpha"/>
<feOffset dx="-1"/>
<feGaussianBlur stdDeviation="1"/>
<feComposite in2="hardAlpha" operator="arithmetic" k2="-1" k3="1"/>
<feColorMatrix type="matrix" values="0 0 0 0 0.98 0 0 0 0 0.98 0 0 0 0 0.98 0 0 0 0.2 0"/>
<feBlend mode="normal" in2="effect1_innerShadow" result="effect2_innerShadow"/>
</filter>
<filter id="filter1_if" x="15" y="13.0435" width="21" height="22.9565" filterUnits="userSpaceOnUse" color-interpolation-filters="sRGB">
<feFlood flood-opacity="0" result="BackgroundImageFix"/>
<feBlend mode="normal" in="SourceGraphic" in2="BackgroundImageFix" result="shape"/>
<feColorMatrix in="SourceAlpha" type="matrix" values="0 0 0 0 0 0 0 0 0 0 0 0 0 0 0 0 0 0 127 0" result="hardAlpha"/>
<feOffset dx="-1" dy="1"/>
<feGaussianBlur stdDeviation="0.5"/>
<feComposite in2="hardAlpha" operator="arithmetic" k2="-1" k3="1"/>
<feColorMatrix type="matrix" values="0 0 0 0 0.98 0 0 0 0 0.98 0 0 0 0 0.98 0 0 0 0.5 0"/>
<feBlend mode="normal" in2="shape" result="effect1_innerShadow"/>
<feGaussianBlur stdDeviation="1" result="effect2_foregroundBlur"/>
</filter>
<filter id="filter2_iif" x="-1" y="-1" width="37" height="27.9645" filterUnits="userSpaceOnUse" color-interpolation-filters="sRGB">
<feFlood flood-opacity="0" result="BackgroundImageFix"/>
<feBlend mode="normal" in="SourceGraphic" in2="BackgroundImageFix" result="shape"/>
<feColorMatrix in="SourceAlpha" type="matrix" values="0 0 0 0 0 0 0 0 0 0 0 0 0 0 0 0 0 0 127 0" result="hardAlpha"/>
<feOffset dx="2" dy="2"/>
<feGaussianBlur stdDeviation="10"/>
<feComposite in2="hardAlpha" operator="arithmetic" k2="-1" k3="1"/>
<feColorMatrix type="matrix" values="0 0 0 0 0.643333 0 0 0 0 0.643333 0 0 0 0 0.643333 0 0 0 0.2 0"/>
<feBlend mode="normal" in2="shape" result="effect1_innerShadow"/>
<feColorMatrix in="SourceAlpha" type="matrix" values="0 0 0 0 0 0 0 0 0 0 0 0 0 0 0 0 0 0 127 0" result="hardAlpha"/>
<feOffset dx="-2"/>
<feGaussianBlur stdDeviation="0.5"/>
<feComposite in2="hardAlpha" operator="arithmetic" k2="-1" k3="1"/>
<feColorMatrix type="matrix" values="0 0 0 0 0.98 0 0 0 0 0.98 0 0 0 0 0.98 0 0 0 0.8 0"/>
<feBlend mode="normal" in2="effect1_innerShadow" result="effect2_innerShadow"/>
<feGaussianBlur stdDeviation="0.5" result="effect3_foregroundBlur"/>
</filter>
<radialGradient id="paint0_radial" cx="0" cy="0" r="1" gradientUnits="userSpaceOnUse" gradientTransform="translate(30.2818 26.6165) rotate(-161.19) scale(51.5342 1142.82)">
<stop stop-color="#FAFAFA"/>
<stop offset="1" stop-color="#FAFAFA"/>
</radialGradient>
<radialGradient id="paint1_radial" cx="0" cy="0" r="1" gradientUnits="userSpaceOnUse" gradientTransform="translate(31.5 21.5) rotate(-173.454) scale(30.7002 49.4395)">
<stop stop-color="#EAEAEA"/>
<stop offset="0.0001" stop-color="#E9E9E9"/>
<stop offset="1" stop-color="#E4E4E4"/>
</radialGradient>
<radialGradient id="paint2_radial" cx="0" cy="0" r="1" gradientUnits="userSpaceOnUse" gradientTransform="translate(35.5 15) rotate(-165.964) scale(32.9848 19.2259)">
<stop stop-color="#FAFAFA"/>
<stop offset="1" stop-color="#F8F8F8"/>
</radialGradient>
</defs>
</svg>
